d1
$ brak
$ sound "sn:7 bd:1 silence sn:7 bd:1 bd:2 sn:7"
|> gain 1.3
|> crush 5

d1 silence

d2
$ randslice 4
$ sound "ade:2"
|> hpf 500
|> lpf 3000
|> speed (range 1 8 $ tri)
|> gain 1.1
|> crush 4
|> pan (rand)
-- # room 0.5
-- # size 0.7
-- # orbit 1
 -- # delay "[0 0.5]/2"
 -- # orbit 1

d2 silence

d3
$ randslice 4
$ sound "ade:3"
|> gain 0.8
|> pan (rand)

d3 silence

hush
